X: 57
T: REELS: Golden Keyboard Set
T: Golden Keyboard
C: C: Martin Mulhaire / Trad. / Trad.; S: Various
C: Set Leaders: André, Sophie, Anton
Z: [Unedited], Oleg Naumov arr.; Benjamin Glauser / Benjamin Glauser / Jdharv at The Session
N: https://thesession.org/members/26966/sets/96714
R: Reel
M: 4/4
L: 1/8
Q: 1/2=100
K: Edor
|:"Em"BGEF GFGA|B2gB fBed|BGEF GBAG|"D"F/E/D AD BDAF|
"Em"EDEF "D/F#"GFGA|"G"B2gB fBec|"D"d/e/d ce dBAF|"D/F#"DFAF "(A)"GEE2:||
|:"Em"Bee2 Bee2|Beef "A"edBe|"D"dAA2 eAce|"D/B"d/e/d ce dBAF|
"Em"EDEF "D/F#"GFGA|"G"B2gB fBec|"D"d/e/d ce dBAF|"Bm"DFAF "(A)"GEE2:||
T: Saint Anne's
K: Dmaj
|:"D"fedf edcB|A2FA DAFA|"G"B2GB EBGB|"D"A2FA "A"DAFA|
"D"fedf edcB|A2FA DAFA|"G"BGed "A"cABc|"D"ed"A"dc "D"d2 de:||
|:"D"f2fg fedc|"G"Bggf g2gf|"A"edcB ABce|"D"baa^g aba=g|
"D"f2fg fedc|"G"Bggf g2gf|"A"edcB ABcd|"D"ed"A"dc "D"d2 de:||
T: Drunken Landlady
K: Edor
|:"Em"BE~E2 "(D/F#)"BAFA|"(G)"BE~E2 "(A)"BAFA|"D"ABAF D2FD|FA~A2 "(Bm)"BAFA|
"Em"BE~E2 "(D/F#)"BAFA|"(G)"BE~E2 "(A)"BAFA|"D"A2Bc "(Bm)"dfec|"(D/F#)"dBAF "Em"E4:||
|:"Em"Beed "(D/F#)"e2de|"(G)"f2df "(A)"efdB|"D"ABAF D2FD|"D/F#"FA~A2 "Bm"BAFA|
"Em"Beed "(D/F#)"e2de|"(G)"f2df "(A)"efdB|"D"A2Bc dfec|"D/F#"dBAF "(Em)"E4:||

